www/assets/icons/hdr_plus.svg

<svg xmlns="http://www.w3.org/2000/svg" width="24" height="24" viewBox="0 0 24 24" fill='currentColor'><path d="M10.5 14.5h-2v1h2zm5.5-7h-1.5v3H16z"/><path d="M12 2C6.48 2 2 6.48 2 12s4.48 10 10 10 10-4.48 10-10S17.52 2 12 2m0 13.5c0 .6-.4 1.1-.9 1.4L12 19h-1.5l-.9-2H8.5v2H7v-6h3.5c.8 0 1.5.7 1.5 1.5zm0-3.5h-1.5V9.5h-2V12H7V6h1.5v2h2V6H12zm5.5 4H16v1.5h-1.5V16H13v-1.5h1.5V13H16v1.49h1.5zm0-5.5c0 .8-.7 1.5-1.5 1.5h-3V6h3c.8 0 1.5.7 1.5 1.5z"/></svg>

<svg width="24" height="24" viewBox="0 0 24 24" xmlns="http://www.w3.org/2000/svg" fill='currentColor'><path d="M10.5 14.5H8.5V15.5H10.5V14.5Z"/><path d="M16 7.5H14.5V10.5H16V7.5Z"/><path d="M12 2C6.48 2 2 6.48 2 12C2 17.52 6.48 22 12 22C17.52 22 22 17.52 22 12C22 6.48 17.52 2 12 2ZM12 15.5C12 16.1 11.6 16.6 11.1 16.9L12 19H10.5L9.6 17H8.5V19H7V13H10.5C11.3 13 12 13.7 12 14.5V15.5ZM12 12H10.5V9.5H8.5V12H7V6H8.5V8H10.5V6H12V12ZM17.5 16H16V17.5H14.5V16H13V14.5H14.5V13H16V14.49H17.5V16ZM17.5 10.5C17.5 11.3 16.8 12 16 12H13V6H16C16.8 6 17.5 6.7 17.5 7.5V10.5Z"/></svg>
